X: 15607
T: Goat Island Ceilidh Band, The
R: reel
M: 4/4
K: Gmajor
ed|B2 dB A2 BA|G2 G/G/G GEDE|G3G GEDE|GABd A2 ed|
BedB A2 BA|G2 G/G/G GEDE|G2 EG gedB|dBAB GA:|
Bd|e2 dB e2 dB|efgf e2 dB|d2 BA d2 BA|edBd A2 d/e/f|
gedB edBA|G2 G/G/G GEDE|G2 EG gedB|dBAB GA:|

